Papirus/64x64/apps/recstudio.svg

<svg width="64" height="64" version="1.1" xmlns="http://www.w3.org/2000/svg">
 <path d="m10 55.9998v2c0 1.662 1.338 3 3 3h38c1.662 0 3-1.338 3-3v-2c0 1.662-1.338 3-3 3h-38c-1.662 0-3-1.338-3-3z" style="opacity:.2"/>
 <path d="m54 56.9998v-50c0-1.662-1.338-3-3-3h-38c-1.662 0-3 1.338-3 3v50c0 1.662 1.338 3 3 3h38c1.662 0 3-1.338 3-3z" style="fill:#afb225"/>
 <path d="m13 3.9998c-1.662 0-3 1.338-3 3v1c0-1.662 1.338-3 3-3h38c1.662 0 3 1.338 3 3v-1c0-1.662-1.338-3-3-3z" style="fill:#ffffff;opacity:.1"/>
 <g transform="translate(0,-2e-4)" style="fill:#ffffff;opacity:.5">
  <path d="m14.75 10a0.750075 0.66673333 0 0 0-0.75 0.666016v6.667968a0.750075 0.66673333 0 0 0 0.75 0.666016h4.5a0.750075 0.66673333 0 0 0 0.75-0.666016v-6.667968a0.750075 0.66673333 0 0 0-0.75-0.666016zm0.25 1h4v6h-4z" style="fill:#ffffff"/>
  <path d="m24.492192 9.9999999a0.49998983 0.66507862 0 0 0-0.492131 0.6754131v6.650119a0.49998983 0.66507862 0 1 0 0.99988 0v-6.650119a0.49998983 0.66507862 0 0 0-0.507939-0.675213z" style="fill-rule:evenodd;fill:#ffffff"/>
  <path d="m30.492192 9.9999999a0.49998983 0.66507862 0 0 0-0.492131 0.6754131v6.650119a0.49998983 0.66507862 0 1 0 0.99988 0v-6.650119a0.49998983 0.66507862 0 0 0-0.507939-0.675213z" style="fill-rule:evenodd;fill:#ffffff"/>
  <path d="m34.75 10a0.750075 0.66673333 0 0 0-0.75 0.666016v6.667968a0.750075 0.66673333 0 0 0 0.75 0.666016h4.5a0.750075 0.66673333 0 0 0 0.75-0.666016v-6.667968a0.750075 0.66673333 0 0 0-0.75-0.666016zm0.25 1h4v6h-4z" style="fill:#ffffff"/>
  <path d="m44.75 10a0.750075 0.66673333 0 0 0-0.75 0.666016v6.667968a0.750075 0.66673333 0 0 0 0.75 0.666016h4.5a0.750075 0.66673333 0 0 0 0.75-0.666016v-6.667968a0.750075 0.66673333 0 0 0-0.75-0.666016zm0.25 1h4v6h-4z" style="fill:#ffffff"/>
  <path d="m49.25 34a0.750075 0.66673333 0 0 1 0.75 0.666016v6.667968a0.750075 0.66673333 0 0 1-0.75 0.666016h-4.5a0.750075 0.66673333 0 0 1-0.75-0.666016v-6.667968a0.750075 0.66673333 0 0 1 0.75-0.666016zm-0.25 1h-4v6h4z" style="fill:#ffffff"/>
  <path d="m39.507808 34a0.49998983 0.66507862 0 0 1 0.492131 0.675413v6.650119a0.49998983 0.66507862 0 1 1-0.99988 0v-6.650119a0.49998983 0.66507862 0 0 1 0.507939-0.675213z" style="fill-rule:evenodd;fill:#ffffff"/>
  <path d="m33.507808 34a0.49998983 0.66507862 0 0 1 0.492131 0.675413v6.650119a0.49998983 0.66507862 0 1 1-0.99988 0v-6.650119a0.49998983 0.66507862 0 0 1 0.507939-0.675213z" style="fill-rule:evenodd;fill:#ffffff"/>
  <path d="m29.25 34a0.750075 0.66673333 0 0 1 0.75 0.666016v6.667968a0.750075 0.66673333 0 0 1-0.75 0.666016h-4.5a0.750075 0.66673333 0 0 1-0.75-0.666016v-6.667968a0.750075 0.66673333 0 0 1 0.75-0.666016zm-0.25 1h-4v6h4z" style="fill:#ffffff"/>
  <path d="m19.25 34a0.750075 0.66673333 0 0 1 0.75 0.666016v6.667968a0.750075 0.66673333 0 0 1-0.75 0.666016h-4.5a0.750075 0.66673333 0 0 1-0.75-0.666016v-6.667968a0.750075 0.66673333 0 0 1 0.75-0.666016zm-0.25 1h-4v6h4z" style="fill:#ffffff"/>
  <path d="m27.25 22a0.750075 0.66673333 0 0 1 0.75 0.666016v6.667968a0.750075 0.66673333 0 0 1-0.75 0.666016h-4.5a0.750075 0.66673333 0 0 1-0.75-0.666016v-6.667968a0.750075 0.66673333 0 0 1 0.75-0.666016zm-0.25 1h-4v6h4z" style="fill:#ffffff"/>
  <path d="m16.507808 22a0.49998983 0.66507862 0 0 1 0.492131 0.675413v6.650119a0.49998983 0.66507862 0 1 1-0.99988 0v-6.650119a0.49998983 0.66507862 0 0 1 0.507939-0.675213z" style="fill-rule:evenodd;fill:#ffffff"/>
  <path d="m34.492192 22a0.49998983 0.66507862 0 0 0-0.492131 0.675413v6.650119a0.49998983 0.66507862 0 1 0 0.99988 0v-6.650119a0.49998983 0.66507862 0 0 0-0.507939-0.675213z" style="fill-rule:evenodd;fill:#ffffff"/>
  <path d="m44.75 22a0.750075 0.66673333 0 0 0-0.75 0.666016v6.667968a0.750075 0.66673333 0 0 0 0.75 0.666016h4.5a0.750075 0.66673333 0 0 0 0.75-0.666016v-6.667968a0.750075 0.66673333 0 0 0-0.75-0.666016zm0.25 1h4v6h-4z" style="fill:#ffffff"/>
  <path d="m38.492192 22a0.49998983 0.66507862 0 0 0-0.492131 0.675413v6.650119a0.49998983 0.66507862 0 1 0 0.99988 0v-6.650119a0.49998983 0.66507862 0 0 0-0.507939-0.675213z" style="fill-rule:evenodd;fill:#ffffff"/>
  <path d="m36.75 46a0.750075 0.66673333 0 0 0-0.75 0.666016v6.667968a0.750075 0.66673333 0 0 0 0.75 0.666016h4.5a0.750075 0.66673333 0 0 0 0.75-0.666016v-6.667968a0.750075 0.66673333 0 0 0-0.75-0.666016zm0.25 1h4v6h-4z" style="fill:#ffffff"/>
  <path d="m47.492192 46a0.49998983 0.66507862 0 0 0-0.492131 0.675413v6.650119a0.49998983 0.66507862 0 1 0 0.99988 0v-6.650119a0.49998983 0.66507862 0 0 0-0.507939-0.675213z" style="fill-rule:evenodd;fill:#ffffff"/>
  <path d="m29.507808 46a0.49998983 0.66507862 0 0 1 0.492131 0.675413v6.650119a0.49998983 0.66507862 0 1 1-0.99988 0v-6.650119a0.49998983 0.66507862 0 0 1 0.507939-0.675213z" style="fill-rule:evenodd;fill:#ffffff"/>
  <path d="m19.25 46a0.750075 0.66673333 0 0 1 0.75 0.666016v6.667968a0.750075 0.66673333 0 0 1-0.75 0.666016h-4.5a0.750075 0.66673333 0 0 1-0.75-0.666016v-6.667968a0.750075 0.66673333 0 0 1 0.75-0.666016zm-0.25 1h-4v6h4z" style="fill:#ffffff"/>
  <path d="m25.507808 46a0.49998983 0.66507862 0 0 1 0.492131 0.675413v6.650119a0.49998983 0.66507862 0 1 1-0.99988 0v-6.650119a0.49998983 0.66507862 0 0 1 0.507939-0.675213z" style="fill-rule:evenodd;fill:#ffffff"/>
 </g>
 <path d="m63.958 45.8478a16 16 0 0 1-15.958 15.152 16 16 0 0 1-15.958-14.848 16 16 0 0 0-0.042 0.848 16 16 0 0 0 16 16 16 16 0 0 0 16-16 16 16 0 0 0-0.04296-1.15234z" style="opacity:.2"/>
 <circle cx="48" cy="45.999802" r="16" style="fill:#d2d638"/>
 <path d="m45 38c-1.662 0-3 1.338-3 3v10c0 1.662 1.338 3 3 3h6c1.662 0 3-1.338 3-3v-2h-3c0 1.108-0.892 2-2 2h-2c-1.108 0-2-0.892-2-2v-6c0-1.108 0.892-2 2-2h2c1.108 0 2 0.892 2 2h3v-2c0-1.662-1.338-3-3-3h-6z" style="fill:#ffffff"/>
</svg>

<?xml version="1.0" encoding="UTF-8" standalone="no"?>
<svg
   id="_图层_1"
   version="1.1"
   viewBox="0 0 64 64" width="64" height="64"
   sodipodi:docname="recstudio.svg"
   xml:space="preserve"
   inkscape:version="1.4 (e7c3feb100, 2024-10-09)"
   xmlns:inkscape="http://www.inkscape.org/namespaces/inkscape"
   xmlns:sodipodi="http://sodipodi.sourceforge.net/DTD/sodipodi-0.dtd"
   xmlns="http://www.w3.org/2000/svg"
   xmlns:svg="http://www.w3.org/2000/svg"><sodipodi:namedview
     id="namedview26"
     pagecolor="#505050"
     bordercolor="#eeeeee"
     borderopacity="1"
     inkscape:showpageshadow="0"
     inkscape:pageopacity="0"
     inkscape:pagecheckerboard="0"
     inkscape:deskcolor="#505050"
     inkscape:zoom="10.6875"
     inkscape:cx="32"
     inkscape:cy="32"
     inkscape:window-width="1920"
     inkscape:window-height="939"
     inkscape:window-x="0"
     inkscape:window-y="34"
     inkscape:window-maximized="1"
     inkscape:current-layer="g29" /><!-- Generator: Adobe Illustrator 29.0.1, SVG Export Plug-In . SVG Version: 2.1.0 Build 192)  --><defs
     id="defs6"><style
       id="style1">
      .st0 {
        fill-opacity: .5;
      }

      .st0, .st1, .st2, .st3, .st4, .st5, .st6, .st7 {
        fill: #fff;
      }

      .st8 {
        fill: #133c9a;
      }

      .st2, .st9 {
        display: none;
      }

      .st3 {
        fill-opacity: .2;
      }

      .st4 {
        fill-opacity: .9;
      }

      .st10 {
        fill: #3370ff;
      }

      .st11 {
        fill: url(#_未命名的渐变_3);
      }

      .st12 {
        fill: url(#_未命名的渐变);
      }

      .st5 {
        fill-opacity: .3;
      }

      .st6 {
        fill-opacity: 0;
      }

      .st7 {
        fill-opacity: .7;
      }

      .st13 {
        fill: #00d6b9;
      }

      .st14 {
        fill: url(#_未命名的渐变_2);
      }
    </style><radialGradient
       id="_未命名的渐变"
       data-name="未命名的渐变"
       cx="123.9"
       cy="-40.2"
       fx="123.9"
       fy="-40.2"
       r="59.4"
       gradientTransform="translate(-26.8 25.5) scale(.6 -.7)"
       gradientUnits="userSpaceOnUse"><stop
         offset="0"
         stop-color="#db202e"
         id="stop1" /><stop
         offset="1"
         stop-color="#e01b24"
         id="stop2" /></radialGradient><radialGradient
       id="_未命名的渐变_2"
       data-name="未命名的渐变 2"
       cx="67.6"
       cy="26.8"
       fx="67.6"
       fy="26.8"
       r="105.2"
       gradientTransform="translate(-26.6 25.3) scale(.6 -.7)"
       gradientUnits="userSpaceOnUse"><stop
         offset="0"
         stop-color="#ffb648"
         id="stop3" /><stop
         offset="1"
         stop-color="#ff7800"
         stop-opacity="0"
         id="stop4" /></radialGradient><radialGradient
       id="_未命名的渐变_3"
       data-name="未命名的渐变 3"
       cx="61.7"
       cy="18.6"
       fx="61.7"
       fy="18.6"
       r="68"
       gradientTransform="translate(-26.8 25.8) scale(.6 -.7)"
       gradientUnits="userSpaceOnUse"><stop
         offset="0"
         stop-color="#c64600"
         id="stop5" /><stop
         offset="1"
         stop-color="#a51d2d"
         id="stop6" /></radialGradient></defs><path
     class="st1"
     d="M47.5,64.1H13.8c-7.6,0-13.8-6.3-13.8-13.8V13.7C0,6.2,6.2,0,13.7,0h36.6c7.5,0,13.7,6.2,13.7,13.7v36.6c0,7.5-6.2,13.7-13.7,13.7h-2.9.1Z"
     id="path6"
     style="fill:#afb225;fill-opacity:1" /><g
     id="g29"
     transform="matrix(0.81958849,0,0,0.81729398,9.7276237,10.946313)"><g
       transform="matrix(1.3615184,0,0,1.3174335,-18.075919,-17.141608)"
       style="opacity:0.5;fill:#ffffff"
       id="g23"><path
         d="M 14.75,10 A 0.750075,0.66673333 0 0 0 14,10.666016 v 6.667968 A 0.750075,0.66673333 0 0 0 14.75,18 h 4.5 A 0.750075,0.66673333 0 0 0 20,17.333984 V 10.666016 A 0.750075,0.66673333 0 0 0 19.25,10 Z M 15,11 h 4 v 6 h -4 z"
         style="fill:#ffffff"
         id="path4" /><path
         d="m 24.492192,9.9999999 a 0.49998983,0.66507862 0 0 0 -0.492131,0.6754131 v 6.650119 a 0.49998983,0.66507862 0 1 0 0.99988,0 V 10.675413 A 0.49998983,0.66507862 0 0 0 24.492002,10.0002 Z"
         style="fill:#ffffff;fill-rule:evenodd"
         id="path5" /><path
         d="m 30.492192,9.9999999 a 0.49998983,0.66507862 0 0 0 -0.492131,0.6754131 v 6.650119 a 0.49998983,0.66507862 0 1 0 0.99988,0 V 10.675413 A 0.49998983,0.66507862 0 0 0 30.492002,10.0002 Z"
         style="fill:#ffffff;fill-rule:evenodd"
         id="path6-3" /><path
         d="M 34.75,10 A 0.750075,0.66673333 0 0 0 34,10.666016 v 6.667968 A 0.750075,0.66673333 0 0 0 34.75,18 h 4.5 A 0.750075,0.66673333 0 0 0 40,17.333984 V 10.666016 A 0.750075,0.66673333 0 0 0 39.25,10 Z M 35,11 h 4 v 6 h -4 z"
         style="fill:#ffffff"
         id="path7" /><path
         d="M 44.75,10 A 0.750075,0.66673333 0 0 0 44,10.666016 v 6.667968 A 0.750075,0.66673333 0 0 0 44.75,18 h 4.5 A 0.750075,0.66673333 0 0 0 50,17.333984 V 10.666016 A 0.750075,0.66673333 0 0 0 49.25,10 Z M 45,11 h 4 v 6 h -4 z"
         style="fill:#ffffff"
         id="path8" /><path
         d="M 49.25,34 A 0.750075,0.66673333 0 0 1 50,34.666016 v 6.667968 A 0.750075,0.66673333 0 0 1 49.25,42 h -4.5 A 0.750075,0.66673333 0 0 1 44,41.333984 V 34.666016 A 0.750075,0.66673333 0 0 1 44.75,34 Z M 49,35 h -4 v 6 h 4 z"
         style="fill:#ffffff"
         id="path9" /><path
         d="m 39.507808,34 a 0.49998983,0.66507862 0 0 1 0.492131,0.675413 v 6.650119 a 0.49998983,0.66507862 0 1 1 -0.99988,0 V 34.675413 A 0.49998983,0.66507862 0 0 1 39.507998,34.0002 Z"
         style="fill:#ffffff;fill-rule:evenodd"
         id="path10" /><path
         d="m 33.507808,34 a 0.49998983,0.66507862 0 0 1 0.492131,0.675413 v 6.650119 a 0.49998983,0.66507862 0 1 1 -0.99988,0 V 34.675413 A 0.49998983,0.66507862 0 0 1 33.507998,34.0002 Z"
         style="fill:#ffffff;fill-rule:evenodd"
         id="path11" /><path
         d="M 29.25,34 A 0.750075,0.66673333 0 0 1 30,34.666016 v 6.667968 A 0.750075,0.66673333 0 0 1 29.25,42 h -4.5 A 0.750075,0.66673333 0 0 1 24,41.333984 V 34.666016 A 0.750075,0.66673333 0 0 1 24.75,34 Z M 29,35 h -4 v 6 h 4 z"
         style="fill:#ffffff"
         id="path12" /><path
         d="M 19.25,34 A 0.750075,0.66673333 0 0 1 20,34.666016 v 6.667968 A 0.750075,0.66673333 0 0 1 19.25,42 h -4.5 A 0.750075,0.66673333 0 0 1 14,41.333984 V 34.666016 A 0.750075,0.66673333 0 0 1 14.75,34 Z M 19,35 h -4 v 6 h 4 z"
         style="fill:#ffffff"
         id="path13" /><path
         d="M 27.25,22 A 0.750075,0.66673333 0 0 1 28,22.666016 v 6.667968 A 0.750075,0.66673333 0 0 1 27.25,30 h -4.5 A 0.750075,0.66673333 0 0 1 22,29.333984 V 22.666016 A 0.750075,0.66673333 0 0 1 22.75,22 Z M 27,23 h -4 v 6 h 4 z"
         style="fill:#ffffff"
         id="path14" /><path
         d="m 16.507808,22 a 0.49998983,0.66507862 0 0 1 0.492131,0.675413 v 6.650119 a 0.49998983,0.66507862 0 1 1 -0.99988,0 V 22.675413 A 0.49998983,0.66507862 0 0 1 16.507998,22.0002 Z"
         style="fill:#ffffff;fill-rule:evenodd"
         id="path15" /><path
         d="m 34.492192,22 a 0.49998983,0.66507862 0 0 0 -0.492131,0.675413 v 6.650119 a 0.49998983,0.66507862 0 1 0 0.99988,0 V 22.675413 A 0.49998983,0.66507862 0 0 0 34.492002,22.0002 Z"
         style="fill:#ffffff;fill-rule:evenodd"
         id="path16" /><path
         d="M 44.75,22 A 0.750075,0.66673333 0 0 0 44,22.666016 v 6.667968 A 0.750075,0.66673333 0 0 0 44.75,30 h 4.5 A 0.750075,0.66673333 0 0 0 50,29.333984 V 22.666016 A 0.750075,0.66673333 0 0 0 49.25,22 Z M 45,23 h 4 v 6 h -4 z"
         style="fill:#ffffff"
         id="path17" /><path
         d="m 38.492192,22 a 0.49998983,0.66507862 0 0 0 -0.492131,0.675413 v 6.650119 a 0.49998983,0.66507862 0 1 0 0.99988,0 V 22.675413 A 0.49998983,0.66507862 0 0 0 38.492002,22.0002 Z"
         style="fill:#ffffff;fill-rule:evenodd"
         id="path18" /><path
         d="M 36.75,46 A 0.750075,0.66673333 0 0 0 36,46.666016 v 6.667968 A 0.750075,0.66673333 0 0 0 36.75,54 h 4.5 A 0.750075,0.66673333 0 0 0 42,53.333984 V 46.666016 A 0.750075,0.66673333 0 0 0 41.25,46 Z M 37,47 h 4 v 6 h -4 z"
         style="fill:#ffffff"
         id="path19" /><path
         d="m 47.492192,46 a 0.49998983,0.66507862 0 0 0 -0.492131,0.675413 v 6.650119 a 0.49998983,0.66507862 0 1 0 0.99988,0 V 46.675413 A 0.49998983,0.66507862 0 0 0 47.492002,46.0002 Z"
         style="fill:#ffffff;fill-rule:evenodd"
         id="path20" /><path
         d="m 29.507808,46 a 0.49998983,0.66507862 0 0 1 0.492131,0.675413 v 6.650119 a 0.49998983,0.66507862 0 1 1 -0.99988,0 V 46.675413 A 0.49998983,0.66507862 0 0 1 29.507998,46.0002 Z"
         style="fill:#ffffff;fill-rule:evenodd"
         id="path21" /><path
         d="M 19.25,46 A 0.750075,0.66673333 0 0 1 20,46.666016 v 6.667968 A 0.750075,0.66673333 0 0 1 19.25,54 h -4.5 A 0.750075,0.66673333 0 0 1 14,53.333984 V 46.666016 A 0.750075,0.66673333 0 0 1 14.75,46 Z M 19,47 h -4 v 6 h 4 z"
         style="fill:#ffffff"
         id="path22" /><path
         d="m 25.507808,46 a 0.49998983,0.66507862 0 0 1 0.492131,0.675413 v 6.650119 a 0.49998983,0.66507862 0 1 1 -0.99988,0 V 46.675413 A 0.49998983,0.66507862 0 0 1 25.507998,46.0002 Z"
         style="fill:#ffffff;fill-rule:evenodd"
         id="path23" /></g><path
       d="M 63.958,45.8478 A 16,16 0 0 1 48,60.9998 16,16 0 0 1 32.042,46.1518 16,16 0 0 0 32,46.9998 a 16,16 0 0 0 16,16 16,16 0 0 0 16,-16 16,16 0 0 0 -0.04296,-1.15234 z"
       style="opacity:0.2"
       id="path24" /><circle
       cx="48"
       cy="45.999802"
       r="16"
       style="fill:#d2d638"
       id="circle24" /><path
       d="m 45,38 c -1.662,0 -3,1.338 -3,3 v 10 c 0,1.662 1.338,3 3,3 h 6 c 1.662,0 3,-1.338 3,-3 v -2 h -3 c 0,1.108 -0.892,2 -2,2 h -2 c -1.108,0 -2,-0.892 -2,-2 v -6 c 0,-1.108 0.892,-2 2,-2 h 2 c 1.108,0 2,0.892 2,2 h 3 v -2 c 0,-1.662 -1.338,-3 -3,-3 z"
       style="fill:#ffffff"
       id="path25" /></g></svg>
